X: 20611
T: In a far distant Village liv'd Kate of the Vale
Q: "Allegro"
C: Moulda
B: "Man of Feeling", Gaetano Brandi, ed. v.2 p.61-63
F: http://archive.org/details/manoffeelingorge00rugg
Z: 2012 John Chambers <jc:trillian.mit.edu>
M: 6/8
L: 1/8
K: G
%%continueall
d/ c/ | B> A G c> d e |
w: In a far dis-tant Vil-lage liv'd
d b a g2 d | e c g d c B |
w: Kate of the Vale, a Mai-den all pure as the
{B}A3 z2 A | B e f g e d |
w: Dove, To her would young Hen-ry, oft
d ^c d {f}e2 e | f a d {f/}e d ^c |
w: breath the fond take, but knew not a-las! it was
d2x x3 & d/^c/d/e/f/g/ a2g | fed AB^c | ddd d2z |
w: Love.
d g f e d c | c B c {e}d2 ^d |
w: one fa-tal Morn as to-ge-ther they stray'd in
e ^d e {B}A G F | E2 z z2 (d/c/) |
w: con-verse each hap-pi-ly blest, A*
B G G c A A | (dB) (cd) (ef) g2 d |
w: sigh of soft friend-ship his Bo-*som* be-*tray'd, and
e a g {g/}f e d | g2z z2g | c'/b/a/g/f/e/ dec |
w: Love in his Eyes stood con-fest.
Bdd d2g | c'/b/a/g/f/e/ dec | BGG "Da Capo"G2 |]
%
W: 2 Ah! Kate cried the Youth I have often heard tell,
W: \t That Women are fickle as fair,
W: If so to each fond hope I take a farewell,
W: \t For pleasure can never dwell there,
W: Ne'er doubt she replied while a modest blush rose,
W: \t Which crimson'd her Cheek o'er awhile,
W: 'Tis Virtue alone can a passion disclose,
W: \t A Passion that's void of all guile.
W:
W: 3 Now over the Hills as they both bent their way,
W: \t The Sky form'd a picture all dread,
W: The rains beat aloud, and the winds fiercely blew,
W: \t And thunder roll'd over their head,
W: When Henry alas! fell a Victim to fate,
W: \t And sunk in the realms of the blest,
W: Who left for to sigh his lovelorn poor Mate,
W: \t Who now was depriv'd of her Love.
%
%%center -

% Continuation of previous page.

% Continuation of previous page.

%%sep 2 1 500
%%sep 1 1 500

